X:1
T:Title
%%score { 1 | 2 }
L:1/8
M:3/4
K:Eb
V:1 treble nm="Grand Piano"
V:2 bass 
V:1
 z2 z[Q:1/4=94] E E>F | G3 E G>[FA] | [GB]4 G2 | c3 B AG | [DF]3 E E>F | G3 E G>[FA] | [GB]4 c2 | %7
 B3 G [DG][DF] |[M:3/8] E3 | B[Ge]>[Ge] |[M:3/4] [Ge]3 B c>c |[M:2/4] c4 |[M:1/4] [Ge]2 | %13
[M:3/4] [Fd]3 [EGc] [DFB]>[CE=A] | [B,DB]3 [G,E] [B,EG]>[B,FA] | [EGB]3 [B,EG] [A,EA]>B | c4 e2 | %17
 e3 [EB] [DA]>[DF] |[M:9/16] E4- E/ |] %19
V:2
 z2 z [E,G,B,] [E,G,B,]>[E,A,D] | [E,B,E]3 [E,G,] [E,B,E]>[E,B,] | [E,E]4 [E,B,E]2 | %3
 [A,E]3 [G,B,E] [F,B,D][E,B,E] | [B,,B,]3 [E,G,B,] [E,G,B,]>[E,A,D] | %5
 [E,B,E]3 [E,G,] [E,B,E]>[E,B,] | [E,E]4 [A,E]2 | [G,B,E]3 [E,B,E] [B,,B,][B,,A,] | %8
[M:3/8] [E,G,]3 | [E,G,E][E,B,]>[E,B,] |[M:3/4] [E,B,]3 [E,G,E] [A,E]>[A,E] |[M:2/4] [A,E]4 | %12
[M:1/4] [E,B,]2 |[M:3/4] [F,B,]3 F, F,>F, | B,,3 E, E,>=E, | E,3 _D, C,>[E,G,E] | %16
 [A,E]4 [=A,C_G]2 | [B,G]3[K:bass] [B,,G,] [B,,F,]>[B,,A,] |[M:9/16] [E,G,]4- [E,G,]/ |] %19

